;FLAVOR:Marlin
;TIME:4665
;Filament used: 20.7599m
;Layer height: 0.2
;MINX:61.1
;MINY:7.5
;MINZ:0.2
;MAXX:173.9
;MAXY:227.5
;MAXZ:53.6
;Generated with Cura_SteamEngine 5.3.1
M82 ;absolute extrusion mode
M104 S220 ; set final nozzle temp
M190 S70 ; set and wait for nozzle temp to stabilize
M109 S220 ; wait for nozzle temp to stabilize
G28 ;Home
G1 E10 F3600; push out retracted filament(fix for over retraction after prime)
G92 E0
G92 E0
G1 F3600 E-1.5
;LAYER_COUNT:268
;LAYER:0
M107
G0 F7500 X62.033 Y14.104 Z0.2
;TYPE:SKIRT
G1 F3600 E0
G1 F7500 X62.262 Y13.26 E0.03345
G1 X62.474 Y12.695 E0.05653
G1 X62.823 Y12.012 E0.08587
G1 X63.215 Y11.371 E0.11461
G1 X63.608 Y10.855 E0.13942
G1 X64.185 Y10.265 E0.17098
G1 X64.61 Y9.898 E0.19246
G1 X65.475 Y9.289 E0.23292
G1 X66.369 Y8.849 E0.27103
G1 X67.024 Y8.611 E0.29769
G1 X67.767 Y8.444 E0.32682
G1 X68.561 Y8.327 E0.35752
G1 X69.914 Y8.3 E0.40928
G1 X165.407 Y8.3 E4.0618
G1 X166.186 Y8.311 E4.0916
G1 X167.291 Y8.432 E4.13412
G1 X168.135 Y8.66 E4.16756
G1 X168.706 Y8.875 E4.1909
G1 X169.378 Y9.218 E4.21976
G1 X170.002 Y9.597 E4.24768
G1 X170.446 Y9.922 E4.26873
G1 X171.022 Y10.454 E4.29872
G1 X171.662 Y11.195 E4.33617
G1 X172.219 Y12.092 E4.37655
G1 X172.55 Y12.763 E4.40517
G1 X172.79 Y13.425 E4.43211
G1 X172.956 Y14.165 E4.46111
G1 X173.073 Y14.955 E4.49166
G1 X173.1 Y16.314 E4.54365
G1 X173.1 Y111.807 E8.19618
G1 X173.09 Y112.508 E8.22299
G1 X173.055 Y113.356 E8.25546
G1 X172.976 Y116.148 E8.36229
G1 X172.976 Y118.87 E8.4664
G1 X173.049 Y121.001 E8.54796
G1 X173.1 Y123.514 E8.6441
G1 X173.1 Y219.007 E12.29663
G1 X173.089 Y219.785 E12.32639
G1 X172.968 Y220.893 E12.36902
G1 X172.739 Y221.737 E12.40247
G1 X172.529 Y222.298 E12.42538
G1 X172.175 Y222.994 E12.45525
G1 X171.806 Y223.599 E12.48235
G1 X171.291 Y224.251 E12.51413
G1 X170.933 Y224.634 E12.53419
G1 X170.304 Y225.179 E12.56602
G1 X169.52 Y225.713 E12.6023
G1 X168.672 Y226.132 E12.63848
G1 X168.056 Y226.362 E12.66363
G1 X167.406 Y226.531 E12.68932
G1 X166.438 Y226.673 E12.72674
G1 X165.086 Y226.7 E12.77846
G1 X69.593 Y226.7 E16.43099
G1 X68.84 Y226.69 E16.4598
G1 X67.704 Y226.565 E16.50351
G1 X66.83 Y226.313 E16.5383
G1 X66.121 Y226.044 E16.56731
G1 X65.435 Y225.695 E16.59674
G1 X64.639 Y225.137 E16.63393
G1 X63.928 Y224.497 E16.67052
G1 X63.253 Y223.668 E16.71141
G1 X62.778 Y222.902 E16.74588
G1 X62.448 Y222.231 E16.77448
G1 X62.211 Y221.576 E16.80113
G1 X62.044 Y220.835 E16.83018
G1 X61.927 Y220.045 E16.86073
G1 X61.9 Y218.686 E16.91272
G1 X61.9 Y123.194 E20.5652
G1 X61.91 Y122.488 E20.59221
G1 X61.945 Y121.644 E20.62452
G1 X62.024 Y118.852 E20.73136
G1 X62.024 Y116.13 E20.83547
G1 X61.951 Y113.999 E20.91703
G1 X61.9 Y111.486 E21.01317
G1 X61.9 Y15.993 E24.66569
G1 X61.911 Y15.21 E24.69565
G1 X62.033 Y14.104 E24.73821
G0 X61.635 Y14.06
G1 X61.887 Y13.119 E24.77547
G1 X62.099 Y12.554 E24.79855
G1 X62.482 Y11.803 E24.83079
G1 X62.874 Y11.162 E24.85953
G1 X63.322 Y10.575 E24.88778
G1 X63.899 Y9.985 E24.91934
G1 X64.349 Y9.595 E24.94212
G1 X65.298 Y8.93 E24.98644
G1 X66.192 Y8.49 E25.02455
G1 X66.887 Y8.235 E25.05287
G1 X67.709 Y8.048 E25.08511
G1 X68.503 Y7.931 E25.11581
G1 X69.906 Y7.9 E25.16949
G1 X165.413 Y7.9 E28.82255
G1 X166.23 Y7.913 E28.8538
G1 X167.335 Y8.034 E28.89632
G1 X168.239 Y8.274 E28.9321
G1 X168.888 Y8.519 E28.95863
G1 X169.586 Y8.876 E28.98862
G1 X170.21 Y9.255 E29.01654
G1 X170.682 Y9.599 E29.03888
G1 X171.325 Y10.193 E29.07236
G1 X172.002 Y10.984 E29.11219
G1 X172.578 Y11.915 E29.15406
G1 X172.909 Y12.586 E29.18268
G1 X173.166 Y13.289 E29.21131
G1 X173.352 Y14.106 E29.24336
G1 X173.469 Y14.896 E29.2739
G1 X173.5 Y16.306 E29.32785
G1 X173.5 Y111.813 E32.98091
G1 X173.49 Y112.524 E33.00811
G1 X173.455 Y113.372 E33.04057
G1 X173.376 Y116.159 E33.14722
G1 X173.376 Y118.87 E33.25091
G1 X173.449 Y120.993 E33.33216
G1 X173.5 Y123.506 E33.4283
G1 X173.5 Y219.013 E37.08136
G1 X173.487 Y219.828 E37.11254
G1 X173.366 Y220.936 E37.15517
G1 X173.114 Y221.877 E37.19243
G1 X172.886 Y222.479 E37.21705
G1 X172.532 Y223.175 E37.24692
G1 X172.12 Y223.847 E37.27707
G1 X171.605 Y224.499 E37.30885
G1 X171.195 Y224.936 E37.33177
G1 X170.529 Y225.51 E37.3654
G1 X169.697 Y226.072 E37.4038
G1 X168.812 Y226.507 E37.44152
G1 X168.196 Y226.737 E37.46667
G1 X167.464 Y226.927 E37.4956
G1 X166.496 Y227.069 E37.53302
G1 X165.094 Y227.1 E37.58666
G1 X69.588 Y227.1 E41.23968
G1 X68.796 Y227.088 E41.26998
G1 X67.66 Y226.963 E41.31369
G1 X66.688 Y226.687 E41.35234
G1 X65.94 Y226.401 E41.38297
G1 X65.205 Y226.023 E41.41458
G1 X64.409 Y225.465 E41.45176
G1 X63.618 Y224.75 E41.49255
G1 X62.913 Y223.879 E41.53541
G1 X62.419 Y223.079 E41.57137
G1 X62.089 Y222.408 E41.59997
G1 X61.835 Y221.712 E41.62831
G1 X61.648 Y220.894 E41.66041
G1 X61.531 Y220.104 E41.69095
G1 X61.5 Y218.694 E41.7449
G1 X61.5 Y123.188 E45.39792
G1 X61.51 Y122.471 E45.42535
G1 X61.545 Y121.627 E45.45766
G1 X61.624 Y118.841 E45.56426
G1 X61.624 Y116.13 E45.66796
G1 X61.551 Y114.007 E45.74921
G1 X61.5 Y111.494 E45.84535
G1 X61.5 Y15.987 E49.49841
G1 X61.513 Y15.166 E49.52982
G1 X61.635 Y14.06 E49.57238
G0 X61.237 Y14.016
G1 X61.512 Y12.978 E49.61345
G1 X61.724 Y12.413 E49.63653
G1 X62.141 Y11.594 E49.67168
G1 X62.556 Y10.919 E49.70199
G1 X63.036 Y10.295 E49.7321
G1 X63.613 Y9.705 E49.76367
G1 X64.119 Y9.267 E49.78927
G1 X65.068 Y8.602 E49.83359
G1 X66.054 Y8.114 E49.87567
G1 X66.749 Y7.859 E49.90399
G1 X67.651 Y7.652 E49.93938
G1 X68.445 Y7.535 E49.97008
G1 X69.897 Y7.5 E50.02563
G1 X165.419 Y7.5 E53.67927
G1 X166.274 Y7.515 E53.71198
G1 X167.379 Y7.636 E53.7545
G1 X168.342 Y7.887 E53.79256
G1 X169.07 Y8.163 E53.82234
G1 X169.794 Y8.534 E53.85346
G1 X170.418 Y8.913 E53.88138
G1 X170.918 Y9.276 E53.90501
G1 X171.629 Y9.933 E53.94204
G1 X172.306 Y10.724 E53.98187
G1 X172.937 Y11.738 E54.02755
G1 X173.268 Y12.409 E54.05617
G1 X173.542 Y13.152 E54.08646
G1 X173.748 Y14.047 E54.12158
G1 X173.865 Y14.837 E54.15213
G1 X173.9 Y16.297 E54.20799
G1 X173.9 Y111.819 E57.86163
G1 X173.89 Y112.54 E57.88921
G1 X173.855 Y113.388 E57.92167
G1 X173.776 Y116.17 E58.02812
G1 X173.776 Y118.87 E58.13139
G1 X173.849 Y120.985 E58.21234
G1 X173.9 Y123.498 E58.30848
G1 X173.9 Y219.019 E61.96208
G1 X173.885 Y219.871 E61.99467
G1 X173.764 Y220.979 E62.0373
G1 X173.488 Y222.019 E62.07846
G1 X173.243 Y222.66 E62.1047
G1 X172.889 Y223.356 E62.13457
G1 X172.434 Y224.095 E62.16777
G1 X171.897 Y224.773 E62.20085
G1 X171.487 Y225.21 E62.22377
G1 X170.79 Y225.813 E62.25902
G1 X169.873 Y226.431 E62.30132
G1 X168.952 Y226.882 E62.34054
G1 X168.336 Y227.112 E62.36569
G1 X167.522 Y227.323 E62.39785
G1 X166.554 Y227.465 E62.43528
G1 X165.103 Y227.5 E62.49079
G1 X69.582 Y227.5 E66.14439
G1 X68.752 Y227.486 E66.17614
G1 X67.584 Y227.358 E66.22108
G1 X66.545 Y227.061 E66.26242
G1 X65.797 Y226.775 E66.29305
G1 X64.975 Y226.351 E66.32842
G1 X64.179 Y225.793 E66.3656
G1 X63.307 Y225.002 E66.41064
G1 X62.602 Y224.131 E66.4535
G1 X62.06 Y223.256 E66.49287
G1 X61.73 Y222.585 E66.52147
G1 X61.459 Y221.849 E66.55147
G1 X61.252 Y220.953 E66.58664
G1 X61.135 Y220.163 E66.61719
G1 X61.1 Y218.703 E66.67305
G1 X61.1 Y123.182 E70.32664
G1 X61.11 Y122.454 E70.35449
G1 X61.145 Y121.61 E70.3868
G1 X61.224 Y118.83 E70.49318
G1 X61.224 Y116.13 E70.59645
G1 X61.151 Y114.015 E70.67739
G1 X61.1 Y111.502 E70.77353
G1 X61.1 Y15.981 E74.42713
G1 X61.115 Y15.122 E74.45999
G1 X61.237 Y14.016 E74.50255
G1 F3600 E73.00255
;MESH:Snap_Lid_box.stl
G0 F7500 X64.436 Y112.529
G0 X64.517 Y113.174
G0 X64.699 Y113.884
G0 X65.011 Y114.548
G0 X65.698 Y115.494
G0 X66.232 Y115.994
G0 X66.852 Y116.389
G0 X67.516 Y116.701
G0 X68.227 Y116.883
G0 X166.044 Y116.965
G0 X166.044 Y115.699
;TYPE:WALL-INNER
G1 F3600 E74.50255
G1 F7500 X166.538 Y115.637 E74.5216
G1 X167.054 Y115.504 E74.54198
G1 X167.542 Y115.275 E74.5626
G1 X167.892 Y115.052 E74.57847
G1 X168.229 Y114.773 E74.5952
G1 X168.591 Y114.386 E74.61547
G1 X168.877 Y113.939 E74.63577
G1 X169.103 Y113.455 E74.6562
G1 X169.239 Y112.932 E74.67687
G1 X169.299 Y112.428 E74.69629
G1 X169.3 Y15.356 E78.40921
G1 X169.237 Y14.858 E78.42841
G1 X169.105 Y14.346 E78.44863
G1 X168.875 Y13.858 E78.46927
G1 X168.652 Y13.508 E78.48514
G1 X168.373 Y13.171 E78.50187
G1 X167.986 Y12.809 E78.52214
G1 X167.541 Y12.525 E78.54233
G1 X167.054 Y12.296 E78.56292
G1 X166.537 Y12.163 E78.58334
G1 X166.027 Y12.1 E78.60299
G1 X68.956 Y12.1 E82.31588
G1 X68.462 Y12.163 E82.33492
G1 X67.946 Y12.296 E82.35531
G1 X67.458 Y12.525 E82.37592
G1 X67.108 Y12.748 E82.3918
G1 X66.771 Y13.026 E82.40851
G1 X66.409 Y13.414 E82.42881
G1 X66.125 Y13.859 E82.449
G1 X65.896 Y14.346 E82.46958
G1 X65.762 Y14.867 E82.49016
G1 X65.7 Y15.374 E82.50969
G1 X65.701 Y112.444 E86.22254
G1 X65.761 Y112.932 E86.24135
G1 X65.895 Y113.454 E86.26196
G1 X66.125 Y113.94 E86.28252
G1 X66.349 Y114.293 E86.29852
G1 X66.625 Y114.628 E86.31512
G1 X67.014 Y114.991 E86.33547
G1 X67.459 Y115.275 E86.35566
G1 X67.946 Y115.504 E86.37624
G1 X68.463 Y115.636 E86.39665
G1 X68.973 Y115.7 E86.41631
G1 X166.044 Y115.699 E90.1292
G0 X166.069 Y116.099
;TYPE:WALL-OUTER
G1 X166.613 Y116.031 E90.15017
G1 X167.19 Y115.882 E90.17296
G1 X167.735 Y115.626 E90.19599
G1 X168.128 Y115.376 E90.21381
G1 X168.504 Y115.065 E90.23247
G1 X168.909 Y114.632 E90.25515
G1 X169.228 Y114.133 E90.2778
G1 X169.481 Y113.591 E90.30068
G1 X169.633 Y113.006 E90.3238
G1 X169.699 Y112.451 E90.34518
G1 X169.7 Y15.331 E94.05993
G1 X169.631 Y14.783 E94.08106
G1 X169.483 Y14.21 E94.1037
G1 X169.226 Y13.665 E94.12674
G1 X168.976 Y13.272 E94.14456
G1 X168.665 Y12.896 E94.16322
G1 X168.232 Y12.491 E94.1859
G1 X167.735 Y12.174 E94.20845
G1 X167.19 Y11.918 E94.23148
G1 X166.611 Y11.769 E94.25435
G1 X166.051 Y11.7 E94.27593
G1 X68.931 Y11.7 E97.99069
G1 X68.387 Y11.769 E98.01166
G1 X67.81 Y11.918 E98.03445
G1 X67.265 Y12.174 E98.05749
G1 X66.872 Y12.424 E98.0753
G1 X66.496 Y12.734 E98.09394
G1 X66.091 Y13.168 E98.11665
G1 X65.774 Y13.665 E98.13919
G1 X65.518 Y14.21 E98.16222
G1 X65.368 Y14.793 E98.18525
G1 X65.3 Y15.35 E98.20671
G1 X65.301 Y112.469 E101.92143
G1 X65.367 Y113.007 E101.94216
G1 X65.517 Y113.59 E101.96519
G1 X65.774 Y114.133 E101.98817
G1 X66.024 Y114.528 E102.00605
G1 X66.333 Y114.902 E102.0246
G1 X66.768 Y115.309 E102.04739
G1 X67.265 Y115.626 E102.06994
G1 X67.81 Y115.882 E102.09297
G1 X68.389 Y116.03 E102.11583
G1 X68.949 Y116.1 E102.13741
G1 X166.069 Y116.099 E105.85217
G0 X166.267 Y116.075
G0 X166.013 Y115.319
;TYPE:SKIN
G1 X69.004 Y115.32 E109.45137
G1 X68.533 Y115.261 E109.46898
G1 X68.074 Y115.143 E109.48656
G1 X67.637 Y114.938 E109.50447
G1 X67.252 Y114.691 E109.52144
G1 X66.909 Y114.372 E109.53882
G1 X66.457 Y113.754 E109.56723
G1 X66.255 Y113.322 E109.58492
G1 X66.134 Y112.856 E109.60278
G1 X66.081 Y112.416 E109.61923
G1 X66.08 Y15.402 E113.21861
G1 X66.136 Y14.943 E113.23577
G1 X66.258 Y14.472 E113.25382
G1 X66.461 Y14.038 E113.27159
G1 X66.708 Y13.654 E113.28853
G1 X67.035 Y13.302 E113.30636
G1 X67.64 Y12.861 E113.33414
G1 X68.075 Y12.656 E113.35198
G1 X68.533 Y12.538 E113.36953
G1 X68.987 Y12.48 E113.38651
G1 X165.998 Y12.481 E116.98578
G1 X166.465 Y12.538 E117.00323
G1 X166.925 Y12.657 E117.02086
G1 X167.362 Y12.862 E117.03877
G1 X167.748 Y13.11 E117.05579
G1 X168.088 Y13.424 E117.07296
G1 X168.541 Y14.042 E117.10139
G1 X168.745 Y14.476 E117.11918
G1 X168.862 Y14.925 E117.1364
G1 X168.919 Y15.387 E117.15367
G1 X168.919 Y112.4 E120.75302
G1 X168.865 Y112.856 E120.77005
G1 X168.743 Y113.326 E120.78807
G1 X168.543 Y113.756 E120.80566
G1 X168.291 Y114.148 E120.82295
G1 X167.976 Y114.487 E120.84012
G1 X167.358 Y114.941 E120.86857
G1 X166.925 Y115.143 E120.8863
G1 X166.467 Y115.262 E120.90386
G1 X166.013 Y115.319 E120.92083
G1 F3600 E119.42083
G0 F7500 X166.22 Y116.952
G0 X166.774 Y116.883
G0 X167.484 Y116.701
G0 X168.148 Y116.389
G0 X169.094 Y115.702
G0 X169.594 Y115.168
G0 X169.989 Y114.548
G0 X170.299 Y113.885
G0 X170.485 Y113.172
G0 X170.564 Y112.508
G0 X170.564 Y15.271
G0 X170.483 Y14.626
G0 X168.606 Y14.739
G1 F3600 E120.92083
G1 F7500 X166.662 Y12.795 E121.02283
G0 X165.981 Y12.68
G1 X168.718 Y15.417 E121.16644
G0 X168.718 Y15.983
G1 X165.415 Y12.68 E121.33975
G0 X164.849 Y12.68
G1 X168.718 Y16.549 E121.54276
G0 X168.718 Y17.114
G1 X164.284 Y12.68 E121.77541
G0 X163.718 Y12.68
G1 X168.718 Y17.68 E122.03776
G0 X168.718 Y18.246
G1 X163.152 Y12.68 E122.3298
G0 X162.587 Y12.68
G1 X168.718 Y18.811 E122.65149
G0 X168.718 Y19.377
G1 X162.021 Y12.68 E123.00288
G0 X161.455 Y12.68
G1 X168.718 Y19.943 E123.38397
G0 X168.718 Y20.508
G1 X160.89 Y12.68 E123.7947
G0 X160.324 Y12.68
G1 X168.718 Y21.074 E124.23513
G0 X168.718 Y21.64
G1 X159.758 Y12.68 E124.70526
G0 X159.193 Y12.68
G1 X168.718 Y22.205 E125.20504
G0 X168.718 Y22.771
G1 X158.627 Y12.68 E125.73451
G0 X158.061 Y12.68
G1 X168.718 Y23.337 E126.29368
G0 X168.718 Y23.903
G1 X157.496 Y12.68 E126.88252
G0 X156.93 Y12.68
G1 X168.718 Y24.468 E127.50103
G0 X168.718 Y25.034
G1 X156.364 Y12.68 E128.14924
G0 X155.798 Y12.68
G1 X168.718 Y25.6 E128.82715
G0 X168.718 Y26.165
G1 X155.233 Y12.68 E129.53471
G0 X154.667 Y12.68
G1 X168.718 Y26.731 E130.27196
G0 X168.718 Y27.297
G1 X154.101 Y12.68 E131.03891
G0 X153.536 Y12.68
G1 X168.718 Y27.862 E131.8355
G0 X168.718 Y28.428
G1 X152.97 Y12.68 E132.66179
G0 X152.404 Y12.68
G1 X168.718 Y28.994 E133.51779
G0 X168.718 Y29.559
G1 X151.839 Y12.68 E134.40342
G0 X151.273 Y12.68
G1 X168.718 Y30.125 E135.31876
G0 X168.718 Y30.691
G1 X150.707 Y12.68 E136.26379
G0 X150.142 Y12.68
G1 X168.718 Y31.256 E137.23846
G0 X168.718 Y31.822
G1 X149.576 Y12.68 E138.24284
G0 X149.01 Y12.68
G1 X168.718 Y32.388 E139.27691
G0 X168.718 Y32.954
G1 X148.445 Y12.68 E140.34066
G0 X147.879 Y12.68
G1 X168.718 Y33.519 E141.43407
G0 X168.718 Y34.085
G1 X147.313 Y12.68 E142.55719
G0 X146.747 Y12.68
G1 X168.718 Y34.651 E143.71
G0 X168.718 Y35.216
G1 X146.182 Y12.68 E144.89246
G0 X145.616 Y12.68
G1 X168.718 Y35.782 E146.10461
G0 X168.718 Y36.348
G1 X145.05 Y12.68 E147.34646
G0 X144.485 Y12.68
G1 X168.718 Y36.913 E148.61796
G0 X168.718 Y37.479
G1 X143.919 Y12.68 E149.91916
G0 X143.353 Y12.68
G1 X168.718 Y38.045 E151.25005
G0 X168.718 Y38.61
G1 X142.788 Y12.68 E152.61059
G0 X142.222 Y12.68
G1 X168.718 Y39.176 E154.00083
G0 X168.718 Y39.742
G1 X141.656 Y12.68 E155.42076
G0 X141.091 Y12.68
G1 X168.718 Y40.307 E156.87034
G0 X168.718 Y40.873
G1 X140.525 Y12.68 E158.34962
G0 X139.959 Y12.68
G1 X168.718 Y41.439 E159.8586
G0 X168.718 Y42.004
G1 X139.394 Y12.68 E161.39722
G0 X138.828 Y12.68
G1 X168.718 Y42.57 E162.96554
G0 X168.718 Y43.136
G1 X138.262 Y12.68 E164.56356
G0 X137.697 Y12.68
G1 X168.718 Y43.702 E166.19124
G0 X168.718 Y44.267
G1 X137.131 Y12.68 E167.84861
G0 X136.565 Y12.68
G1 X168.718 Y44.833 E169.53566
G0 X168.718 Y45.399
G1 X135.999 Y12.68 E171.25242
G0 X135.434 Y12.68
G1 X168.718 Y45.964 E172.99882
G0 X168.718 Y46.53
G1 X134.868 Y12.68 E174.77492
G0 X134.302 Y12.68
G1 X168.718 Y47.096 E176.58072
G0 X168.718 Y47.661
G1 X133.737 Y12.68 E178.41616
G0 X133.171 Y12.68
G1 X168.718 Y48.227 E180.2813
G0 X168.718 Y48.793
G1 X132.605 Y12.68 E182.17614
G0 X132.04 Y12.68
G1 X168.718 Y49.358 E184.10062
G0 X168.718 Y49.924
G1 X131.474 Y12.68 E186.0548
G0 X130.908 Y12.68
G1 X168.718 Y50.49 E188.03868
G0 X168.718 Y51.055
G1 X130.343 Y12.68 E190.05221
G0 X129.777 Y12.68
G1 X168.718 Y51.621 E192.09543
G0 X168.718 Y52.187
G1 X129.211 Y12.68 E194.16835
G0 X128.646 Y12.68
G1 X168.718 Y52.752 E196.27092
G0 X168.718 Y53.318
G1 X128.08 Y12.68 E198.40318
G0 X127.514 Y12.68
G1 X168.718 Y53.884 E200.56514
G0 X168.718 Y54.45
G1 X126.949 Y12.68 E202.75678
G0 X126.383 Y12.68
G1 X168.718 Y55.015 E204.97808
G0 X168.718 Y55.581
G1 X125.817 Y12.68 E207.22908
G0 X125.251 Y12.68
G1 X168.718 Y56.147 E209.50978
G0 X168.718 Y56.712
G1 X124.686 Y12.68 E211.82013
G0 X124.12 Y12.68
G1 X168.718 Y57.278 E214.16017
G0 X168.718 Y57.844
G1 X123.554 Y12.68 E216.52991
G0 X122.989 Y12.68
G1 X168.718 Y58.409 E218.9293
G0 X168.718 Y58.975
G1 X122.423 Y12.68 E221.35839
G0 X121.857 Y12.68
G1 X168.718 Y59.541 E223.81717
G0 X168.718 Y60.106
G1 X121.292 Y12.68 E226.3056
G0 X120.726 Y12.68
G1 X168.718 Y60.672 E228.82372
G0 X168.718 Y61.238
G1 X120.16 Y12.68 E231.37155
G0 X119.595 Y12.68
