;FLAVOR:Marlin
;TIME:8126
;Filament used: 6.0116m
;Layer height: 0.2
;MINX:113.942
;MINY:155.958
;MINZ:0.3
;MAXX:225.55
;MAXY:243.6
;MAXZ:8.9
;Generated with Cura_SteamEngine 4.13.0
M140 S100
M105
M190 S100
M104 S255
M105
M109 S255
M82 ;absolute extrusion mode
G21 ;metric values
G90 ;absolute positioning
M82 ;set extruder to absolute mode
M107 ;start with the fan off
G28 X0 Y0 ;move X/Y to min endstops
G28 Z0 ;move Z to min endstops
G1 Z15.0 F60 ;move the platform down 15mm
G92 E0 ;zero the extruded length
G1 F200 E3 ;extrude 3mm of feed stock
G92 E0 ;zero the extruded length again
G1 F60
M117 Printing...
G5
G92 E0
G92 E0
G1 F2400 E-3
;LAYER_COUNT:44
;LAYER:0
M107
M204 S300
M205 X8.18 Y8.18
G0 F1800 X133.692 Y155.958 Z0.3
M205 X3 Y3
;TYPE:SUPPORT
G1 F2400 E0
G1 F1200 X143.292 Y155.958 E0.47895
G1 X143.292 Y180.329 E1.69482
G1 X133.692 Y180.328 E2.17377
G1 X133.692 Y155.958 E3.38959
M205 X8.18 Y8.18
G0 F1800 X133.852 Y157.353
M205 X3 Y3
G1 F1200 X143.132 Y157.353 E3.85257
M205 X8.18 Y8.18
G0 F1800 X141.351 Y156.118
M205 X3 Y3
G1 F1200 X141.351 Y180.168 E5.05243
M205 X8.18 Y8.18
G0 F1800 X143.132 Y178.689
M205 X3 Y3
G1 F1200 X133.852 Y178.689 E5.51541
M205 X8.18 Y8.18
G0 F1800 X136.017 Y180.168
M205 X3 Y3
G1 F1200 X136.017 Y156.118 E6.71527
M205 X8.18 Y8.18
G0 F1800 X138.684 Y156.118
M205 X3 Y3
G1 F1200 X138.684 Y180.168 E7.91513
M205 X8.18 Y8.18
G0 F1800 X143.132 Y176.022
M205 X3 Y3
G1 F1200 X133.852 Y176.022 E8.37811
M205 X8.18 Y8.18
G0 F1800 X133.852 Y173.355
M205 X3 Y3
G1 F1200 X143.132 Y173.355 E8.84109
M205 X8.18 Y8.18
G0 F1800 X143.132 Y170.688
M205 X3 Y3
G1 F1200 X133.852 Y170.688 E9.30407
M205 X8.18 Y8.18
G0 F1800 X133.852 Y168.021
M205 X3 Y3
G1 F1200 X143.132 Y168.021 E9.76705
M205 X8.18 Y8.18
G0 F1800 X143.132 Y165.354
M205 X3 Y3
G1 F1200 X133.852 Y165.354 E10.23004
M205 X8.18 Y8.18
G0 F1800 X133.852 Y162.687
M205 X3 Y3
G1 F1200 X143.132 Y162.687 E10.69302
M205 X8.18 Y8.18
G0 F1800 X143.132 Y160.02
M205 X3 Y3
G1 F1200 X133.852 Y160.02 E11.156
M205 X8.18 Y8.18
G1 F2400 E8.156
;MESH:BeeMic.stl
G0 F1800 X133.85 Y180.563
G0 X133.85 Y181.848
G0 X164.103 Y242.617
G1 F2400 E11.156
G0 F1800 X164.173 Y242.687
M205 X3 Y3
;TYPE:WALL-INNER
G1 F1200 X114.817 Y242.687 E13.61838
G1 X114.816 Y181.828 E16.65465
G1 X164.172 Y181.829 E19.11703
G1 X164.173 Y242.687 E22.15325
M205 X8.18 Y8.18
G0 F1800 X164.255 Y243.087
M205 X3 Y3
;TYPE:WALL-OUTER
G1 F1200 X114.763 Y243.087 E24.62241
G1 X114.6 Y243.055 E24.6307
G1 X114.476 Y242.951 E24.63877
G1 X114.417 Y242.798 E24.64695
G1 X114.416 Y181.718 E27.69425
G1 X114.475 Y181.566 E27.70238
G1 X114.604 Y181.46 E27.71071
G1 X114.778 Y181.428 E27.71954
G1 X164.254 Y181.429 E30.18791
G1 X164.425 Y181.485 E30.19688
G1 X164.53 Y181.599 E30.20462
G1 X164.572 Y181.774 E30.21359
G1 X164.573 Y242.749 E33.25565
G1 X164.523 Y242.928 E33.26492
G1 X164.419 Y243.036 E33.2724
G1 X164.255 Y243.087 E33.28097
M205 X8.18 Y8.18
G0 F1800 X164.055 Y243.087
G0 X163.783 Y242.297
M205 X3 Y3
;TYPE:SKIN
G1 F1200 X115.207 Y242.297 E35.70444
G1 X115.206 Y182.218 E38.70179
G1 X163.782 Y182.219 E41.12526
G1 X163.783 Y242.297 E44.12256
M205 X8.18 Y8.18
G0 F1800 X115.988 Y242.135
M205 X3 Y3
G1 F1200 X115.366 Y241.514 E44.16641
M205 X8.18 Y8.18
G0 F1800 X115.366 Y240.948
M205 X3 Y3
G1 F1200 X116.553 Y242.135 E44.25016
M205 X8.18 Y8.18
G0 F1800 X117.119 Y242.135
M205 X3 Y3
G1 F1200 X115.366 Y240.383 E44.37381
M205 X8.18 Y8.18
G0 F1800 X115.366 Y239.817
M205 X3 Y3
G1 F1200 X117.685 Y242.135 E44.53739
M205 X8.18 Y8.18
G0 F1800 X118.25 Y242.135
M205 X3 Y3
G1 F1200 X115.366 Y239.251 E44.74087
M205 X8.18 Y8.18
G0 F1800 X115.366 Y238.686
M205 X3 Y3
G1 F1200 X118.816 Y242.135 E44.98425
M205 X8.18 Y8.18
G0 F1800 X119.382 Y242.135
M205 X3 Y3
G1 F1200 X115.366 Y238.12 E45.26757
M205 X8.18 Y8.18
G0 F1800 X115.366 Y237.554
M205 X3 Y3
G1 F1200 X119.947 Y242.135 E45.59078
M205 X8.18 Y8.18
G0 F1800 X120.513 Y242.135
M205 X3 Y3
G1 F1200 X115.366 Y236.988 E45.95393
M205 X8.18 Y8.18
G0 F1800 X115.366 Y236.423
M205 X3 Y3
G1 F1200 X121.079 Y242.135 E46.35698
M205 X8.18 Y8.18
G0 F1800 X121.644 Y242.135
M205 X3 Y3
G1 F1200 X115.366 Y235.857 E46.79993
M205 X8.18 Y8.18
G0 F1800 X115.366 Y235.291
M205 X3 Y3
G1 F1200 X122.21 Y242.135 E47.28281
M205 X8.18 Y8.18
G0 F1800 X122.776 Y242.135
M205 X3 Y3
G1 F1200 X115.366 Y234.726 E47.80559
M205 X8.18 Y8.18
G0 F1800 X115.366 Y234.16
M205 X3 Y3
G1 F1200 X123.342 Y242.135 E48.3683
M205 X8.18 Y8.18
G0 F1800 X123.907 Y242.135
M205 X3 Y3
G1 F1200 X115.366 Y233.594 E48.97092
M205 X8.18 Y8.18
G0 F1800 X115.366 Y233.029
M205 X3 Y3
G1 F1200 X124.473 Y242.135 E49.61343
M205 X8.18 Y8.18
G0 F1800 X125.039 Y242.135
M205 X3 Y3
G1 F1200 X115.366 Y232.463 E50.29588
M205 X8.18 Y8.18
G0 F1800 X115.366 Y231.897
M205 X3 Y3
G1 F1200 X125.604 Y242.135 E51.01822
M205 X8.18 Y8.18
G0 F1800 X126.17 Y242.135
M205 X3 Y3
G1 F1200 X115.366 Y231.332 E51.78047
M205 X8.18 Y8.18
G0 F1800 X115.366 Y230.766
M205 X3 Y3
G1 F1200 X126.736 Y242.135 E52.58265
M205 X8.18 Y8.18
G0 F1800 X127.301 Y242.135
M205 X3 Y3
G1 F1200 X115.366 Y230.2 E53.42473
M205 X8.18 Y8.18
G0 F1800 X115.366 Y229.635
M205 X3 Y3
G1 F1200 X127.867 Y242.135 E54.3067
M205 X8.18 Y8.18
G0 F1800 X128.433 Y242.135
M205 X3 Y3
G1 F1200 X115.366 Y229.069 E55.22862
M205 X8.18 Y8.18
G0 F1800 X115.366 Y228.503
M205 X3 Y3
G1 F1200 X128.998 Y242.135 E56.19043
M205 X8.18 Y8.18
G0 F1800 X129.564 Y242.135
M205 X3 Y3
G1 F1200 X115.366 Y227.937 E57.19217
M205 X8.18 Y8.18
G0 F1800 X115.366 Y227.372
M205 X3 Y3
G1 F1200 X130.13 Y242.135 E58.23382
M205 X8.18 Y8.18
G0 F1800 X130.695 Y242.135
M205 X3 Y3
G1 F1200 X115.366 Y226.806 E59.31536
M205 X8.18 Y8.18
G0 F1800 X115.366 Y226.24
M205 X3 Y3
G1 F1200 X131.261 Y242.135 E60.43684
M205 X8.18 Y8.18
G0 F1800 X131.827 Y242.135
M205 X3 Y3
G1 F1200 X115.366 Y225.675 E61.59822
M205 X8.18 Y8.18
G0 F1800 X115.366 Y225.109
M205 X3 Y3
G1 F1200 X132.393 Y242.135 E62.79953
M205 X8.18 Y8.18
G0 F1800 X132.958 Y242.135
M205 X3 Y3
G1 F1200 X115.366 Y224.543 E64.04074
M205 X8.18 Y8.18
G0 F1800 X115.366 Y223.978
M205 X3 Y3
G1 F1200 X133.524 Y242.135 E65.32185
M205 X8.18 Y8.18
G0 F1800 X134.09 Y242.135
M205 X3 Y3
G1 F1200 X115.366 Y223.412 E66.64289
M205 X8.18 Y8.18
G0 F1800 X115.366 Y222.846
M205 X3 Y3
G1 F1200 X134.655 Y242.135 E68.00384
M205 X8.18 Y8.18
G0 F1800 X135.221 Y242.135
M205 X3 Y3
G1 F1200 X115.366 Y222.281 E69.40468
M205 X8.18 Y8.18
G0 F1800 X115.366 Y221.715
M205 X3 Y3
G1 F1200 X135.787 Y242.135 E70.84545
M205 X8.18 Y8.18
G0 F1800 X136.352 Y242.135
M205 X3 Y3
G1 F1200 X115.366 Y221.149 E72.32613
M205 X8.18 Y8.18
G0 F1800 X115.366 Y220.584
M205 X3 Y3
G1 F1200 X136.918 Y242.135 E73.8467
M205 X8.18 Y8.18
G0 F1800 X137.484 Y242.135
M205 X3 Y3
G1 F1200 X115.366 Y220.018 E75.40721
M205 X8.18 Y8.18
G0 F1800 X115.366 Y219.452
M205 X3 Y3
G1 F1200 X138.049 Y242.135 E77.00762
M205 X8.18 Y8.18
G0 F1800 X138.615 Y242.135
M205 X3 Y3
G1 F1200 X115.366 Y218.887 E78.64793
M205 X8.18 Y8.18
G0 F1800 X115.366 Y218.321
M205 X3 Y3
G1 F1200 X139.181 Y242.135 E80.32817
M205 X8.18 Y8.18
G0 F1800 X139.746 Y242.135
M205 X3 Y3
G1 F1200 X115.366 Y217.755 E82.04831
M205 X8.18 Y8.18
G0 F1800 X115.366 Y217.189
M205 X3 Y3
G1 F1200 X140.312 Y242.135 E83.80839
M205 X8.18 Y8.18
G0 F1800 X140.878 Y242.135
M205 X3 Y3
G1 F1200 X115.366 Y216.624 E85.60836
M205 X8.18 Y8.18
G0 F1800 X115.366 Y216.058
M205 X3 Y3
G1 F1200 X141.443 Y242.135 E87.44823
M205 X8.18 Y8.18
G0 F1800 X142.009 Y242.135
M205 X3 Y3
G1 F1200 X115.366 Y215.492 E89.32804
M205 X8.18 Y8.18
G0 F1800 X115.366 Y214.927
M205 X3 Y3
G1 F1200 X142.575 Y242.135 E91.24775
M205 X8.18 Y8.18
G0 F1800 X143.141 Y242.135
M205 X3 Y3
G1 F1200 X115.366 Y214.361 E93.20739
M205 X8.18 Y8.18
G0 F1800 X115.366 Y213.795
M205 X3 Y3
G1 F1200 X143.706 Y242.135 E95.20693
M205 X8.18 Y8.18
G0 F1800 X144.272 Y242.135
M205 X3 Y3
G1 F1200 X115.366 Y213.23 E97.24637
M205 X8.18 Y8.18
G0 F1800 X115.366 Y212.664
M205 X3 Y3
G1 F1200 X144.838 Y242.135 E99.32574
M205 X8.18 Y8.18
G0 F1800 X145.403 Y242.135
M205 X3 Y3
G1 F1200 X115.365 Y212.098 E101.44505
M205 X8.18 Y8.18
G0 F1800 X115.365 Y211.532
M205 X3 Y3
G1 F1200 X145.969 Y242.135 E103.60429
M205 X8.18 Y8.18
G0 F1800 X146.535 Y242.135
M205 X3 Y3
G1 F1200 X115.365 Y210.966 E105.80347
M205 X8.18 Y8.18
G0 F1800 X115.365 Y210.401
M205 X3 Y3
G1 F1200 X147.1 Y242.135 E108.04251
M205 X8.18 Y8.18
G0 F1800 X147.666 Y242.135
M205 X3 Y3
G1 F1200 X115.365 Y209.835 E110.32148
M205 X8.18 Y8.18
G0 F1800 X115.365 Y209.269
M205 X3 Y3
G1 F1200 X148.232 Y242.135 E112.64039
M205 X8.18 Y8.18
G0 F1800 X148.797 Y242.135
M205 X3 Y3
G1 F1200 X115.365 Y208.703 E114.9992
M205 X8.18 Y8.18
G0 F1800 X115.365 Y208.138
M205 X3 Y3
G1 F1200 X149.363 Y242.135 E117.39791
M205 X8.18 Y8.18
G0 F1800 X149.929 Y242.135
M205 X3 Y3
G1 F1200 X115.365 Y207.572 E119.83655
M205 X8.18 Y8.18
G0 F1800 X115.365 Y207.006
M205 X3 Y3
G1 F1200 X150.494 Y242.135 E122.31509
M205 X8.18 Y8.18
G0 F1800 X151.06 Y242.135
M205 X3 Y3
G1 F1200 X115.365 Y206.441 E124.83353
M205 X8.18 Y8.18
G0 F1800 X115.365 Y205.875
M205 X3 Y3
G1 F1200 X151.626 Y242.135 E127.3919
M205 X8.18 Y8.18
G0 F1800 X152.192 Y242.135
M205 X3 Y3
G1 F1200 X115.365 Y205.309 E129.99021
M205 X8.18 Y8.18
G0 F1800 X115.365 Y204.744
M205 X3 Y3
G1 F1200 X152.757 Y242.135 E132.62838
M205 X8.18 Y8.18
G0 F1800 X153.323 Y242.135
M205 X3 Y3
G1 F1200 X115.365 Y204.178 E135.30649
M205 X8.18 Y8.18
G0 F1800 X115.365 Y203.612
M205 X3 Y3
G1 F1200 X153.889 Y242.135 E138.02453
M205 X8.18 Y8.18
G0 F1800 X154.454 Y242.135
M205 X3 Y3
G1 F1200 X115.365 Y203.047 E140.78244
M205 X8.18 Y8.18
G0 F1800 X115.365 Y202.481
M205 X3 Y3
G1 F1200 X155.02 Y242.135 E143.58028
M205 X8.18 Y8.18
G0 F1800 X155.586 Y242.135
M205 X3 Y3
G1 F1200 X115.365 Y201.915 E146.41805
M205 X8.18 Y8.18
G0 F1800 X115.365 Y201.35
M205 X3 Y3
G1 F1200 X156.151 Y242.135 E149.29569
M205 X8.18 Y8.18
G0 F1800 X156.717 Y242.135
M205 X3 Y3
G1 F1200 X115.365 Y200.784 E152.21326
M205 X8.18 Y8.18
G0 F1800 X115.365 Y200.218
M205 X3 Y3
G1 F1200 X157.283 Y242.135 E155.17076
M205 X8.18 Y8.18
G0 F1800 X157.848 Y242.135
M205 X3 Y3
G1 F1200 X115.365 Y199.653 E158.16813
M205 X8.18 Y8.18
G0 F1800 X115.365 Y199.087
M205 X3 Y3
G1 F1200 X158.414 Y242.135 E161.20544
M205 X8.18 Y8.18
G0 F1800 X158.98 Y242.135
M205 X3 Y3
G1 F1200 X115.365 Y198.521 E164.28268
M205 X8.18 Y8.18
G0 F1800 X115.365 Y197.955
M205 X3 Y3
G1 F1200 X159.545 Y242.135 E167.39981
M205 X8.18 Y8.18
G0 F1800 X160.111 Y242.135
M205 X3 Y3
G1 F1200 X115.365 Y197.39 E170.55685
M205 X8.18 Y8.18
G0 F1800 X115.365 Y196.824
M205 X3 Y3
G1 F1200 X160.677 Y242.135 E173.75382
M205 X8.18 Y8.18
G0 F1800 X161.242 Y242.135
M205 X3 Y3
G1 F1200 X115.365 Y196.258 E176.99069
M205 X8.18 Y8.18
G0 F1800 X115.365 Y195.693
M205 X3 Y3
G1 F1200 X161.808 Y242.135 E180.26746
M205 X8.18 Y8.18
G0 F1800 X162.374 Y242.135
M205 X3 Y3
G1 F1200 X115.365 Y195.127 E183.58417
M205 X8.18 Y8.18
G0 F1800 X115.365 Y194.561
M205 X3 Y3
G1 F1200 X162.94 Y242.135 E186.9408
M205 X8.18 Y8.18
G0 F1800 X163.505 Y242.135
M205 X3 Y3
G1 F1200 X115.365 Y193.996 E190.33731
M205 X8.18 Y8.18
G0 F1800 X115.365 Y193.43
M205 X3 Y3
G1 F1200 X163.623 Y241.687 E193.74213
M205 X8.18 Y8.18
G0 F1800 X163.623 Y241.121
M205 X3 Y3
G1 F1200 X115.365 Y192.864 E197.14696
M205 X8.18 Y8.18
G0 F1800 X115.365 Y192.299
M205 X3 Y3
G1 F1200 X163.623 Y240.556 E200.55179
M205 X8.18 Y8.18
G0 F1800 X163.623 Y239.99
M205 X3 Y3
G1 F1200 X115.365 Y191.733 E203.95661
M205 X8.18 Y8.18
G0 F1800 X115.365 Y191.167
M205 X3 Y3
G1 F1200 X163.623 Y239.424 E207.36144
M205 X8.18 Y8.18
G0 F1800 X163.623 Y238.859
M205 X3 Y3
G1 F1200 X115.365 Y190.602 E210.76627
M205 X8.18 Y8.18
G0 F1800 X115.365 Y190.036
M205 X3 Y3
G1 F1200 X163.623 Y238.293 E214.1711
M205 X8.18 Y8.18
G0 F1800 X163.623 Y237.727
M205 X3 Y3
G1 F1200 X115.365 Y189.47 E217.57592
M205 X8.18 Y8.18
G0 F1800 X115.365 Y188.904
M205 X3 Y3
G1 F1200 X163.623 Y237.162 E220.98079
M205 X8.18 Y8.18
G0 F1800 X163.623 Y236.596
M205 X3 Y3
G1 F1200 X115.365 Y188.339 E224.38561
M205 X8.18 Y8.18
G0 F1800 X115.365 Y187.773
M205 X3 Y3
G1 F1200 X163.623 Y236.03 E227.79044
M205 X8.18 Y8.18
G0 F1800 X163.623 Y235.465
M205 X3 Y3
G1 F1200 X115.365 Y187.207 E231.1953
M205 X8.18 Y8.18
G0 F1800 X115.365 Y186.642
M205 X3 Y3
G1 F1200 X163.623 Y234.899 E234.60013
M205 X8.18 Y8.18
G0 F1800 X163.623 Y234.333
M205 X3 Y3
G1 F1200 X115.365 Y186.076 E238.00496
M205 X8.18 Y8.18
G0 F1800 X115.365 Y185.51
M205 X3 Y3
G1 F1200 X163.623 Y233.768 E241.40982
M205 X8.18 Y8.18
G0 F1800 X163.623 Y233.202
M205 X3 Y3
G1 F1200 X115.365 Y184.945 E244.81465
M205 X8.18 Y8.18
G0 F1800 X115.365 Y184.379
M205 X3 Y3
G1 F1200 X163.623 Y232.636 E248.21947
M205 X8.18 Y8.18
G0 F1800 X163.623 Y232.071
M205 X3 Y3
G1 F1200 X115.365 Y183.813 E251.62434
M205 X8.18 Y8.18
G0 F1800 X115.365 Y183.248
M205 X3 Y3
G1 F1200 X163.623 Y231.505 E255.02916
M205 X8.18 Y8.18
G0 F1800 X163.623 Y230.939
M205 X3 Y3
G1 F1200 X115.365 Y182.682 E258.43399
M205 X8.18 Y8.18
G0 F1800 X115.626 Y182.377
M205 X3 Y3
G1 F1200 X163.623 Y230.373 E261.8204
M205 X8.18 Y8.18
G0 F1800 X163.623 Y229.808
M205 X3 Y3
G1 F1200 X116.192 Y182.377 E265.16692
M205 X8.18 Y8.18
G0 F1800 X116.758 Y182.377
M205 X3 Y3
G1 F1200 X163.623 Y229.242 E268.4735
M205 X8.18 Y8.18
G0 F1800 X163.623 Y228.676
M205 X3 Y3
G1 F1200 X117.323 Y182.377 E271.74018
M205 X8.18 Y8.18
G0 F1800 X117.889 Y182.377
M205 X3 Y3
G1 F1200 X163.623 Y228.111 E274.96696
M205 X8.18 Y8.18
G0 F1800 X163.623 Y227.545
M205 X3 Y3
G1 F1200 X118.455 Y182.377 E278.1538
M205 X8.18 Y8.18
G0 F1800 X119.02 Y182.377
M205 X3 Y3
G1 F1200 X163.623 Y226.979 E281.30075
M205 X8.18 Y8.18
G0 F1800 X163.623 Y226.414
M205 X3 Y3
G1 F1200 X119.586 Y182.377 E284.4078
M205 X8.18 Y8.18
G0 F1800 X120.152 Y182.377
M205 X3 Y3
G1 F1200 X163.623 Y225.848 E287.47491
M205 X8.18 Y8.18
G0 F1800 X163.623 Y225.282
M205 X3 Y3
G1 F1200 X120.717 Y182.377 E290.50213
M205 X8.18 Y8.18
G0 F1800 X121.283 Y182.377
M205 X3 Y3
G1 F1200 X163.623 Y224.717 E293.48944
M205 X8.18 Y8.18
G0 F1800 X163.623 Y224.151
M205 X3 Y3
G1 F1200 X121.849 Y182.377 E296.43682
M205 X8.18 Y8.18
G0 F1800 X122.415 Y182.377
M205 X3 Y3
G1 F1200 X163.623 Y223.585 E299.34427
M205 X8.18 Y8.18
G0 F1800 X163.623 Y223.02
M205 X3 Y3
G1 F1200 X122.98 Y182.377 E302.21185
M205 X8.18 Y8.18
G0 F1800 X123.546 Y182.377
M205 X3 Y3
G1 F1200 X163.623 Y222.454 E305.0395
M205 X8.18 Y8.18
G0 F1800 X163.623 Y221.888
M205 X3 Y3
G1 F1200 X124.112 Y182.377 E307.82722
M205 X8.18 Y8.18
G0 F1800 X124.677 Y182.377
M205 X3 Y3
G1 F1200 X163.623 Y221.323 E310.57507
M205 X8.18 Y8.18
G0 F1800 X163.623 Y220.757
M205 X3 Y3
G1 F1200 X125.243 Y182.377 E313.28298
M205 X8.18 Y8.18
G0 F1800 X125.809 Y182.377
M205 X3 Y3
G1 F1200 X163.623 Y220.191 E315.95097
M205 X8.18 Y8.18
G0 F1800 X163.623 Y219.625
M205 X3 Y3
G1 F1200 X126.374 Y182.377 E318.57905
M205 X8.18 Y8.18
G0 F1800 X126.94 Y182.377
M205 X3 Y3
G1 F1200 X163.623 Y219.06 E321.16723
M205 X8.18 Y8.18
G0 F1800 X163.623 Y218.494
M205 X3 Y3
G1 F1200 X127.506 Y182.377 E323.71548
M205 X8.18 Y8.18
G0 F1800 X128.071 Y182.377
M205 X3 Y3
G1 F1200 X163.623 Y217.928 E326.22383
M205 X8.18 Y8.18
G0 F1800 X163.623 Y217.363
M205 X3 Y3
G1 F1200 X128.637 Y182.377 E328.69228
M205 X8.18 Y8.18
G0 F1800 X129.203 Y182.377
M205 X3 Y3
G1 F1200 X163.623 Y216.797 E331.1208
M205 X8.18 Y8.18
G0 F1800 X163.623 Y216.231
M205 X3 Y3
G1 F1200 X129.768 Y182.377 E333.50942
M205 X8.18 Y8.18
G0 F1800 X130.334 Y182.377
M205 X3 Y3
G1 F1200 X163.623 Y215.666 E335.85814
M205 X8.18 Y8.18
G0 F1800 X163.623 Y215.1
M205 X3 Y3
G1 F1200 X130.9 Y182.377 E338.16692
M205 X8.18 Y8.18
G0 F1800 X131.465 Y182.377
M205 X3 Y3
G1 F1200 X163.623 Y214.534 E340.43581
M205 X8.18 Y8.18
G0 F1800 X163.623 Y213.969
M205 X3 Y3
G1 F1200 X132.031 Y182.377 E342.66479
M205 X8.18 Y8.18
G0 F1800 X132.597 Y182.377
M205 X3 Y3
G1 F1200 X163.623 Y213.403 E344.85385
M205 X8.18 Y8.18
G0 F1800 X163.623 Y212.837
M205 X3 Y3
G1 F1200 X133.163 Y182.377 E347.00296
M205 X8.18 Y8.18
G0 F1800 X133.728 Y182.377
M205 X3 Y3
G1 F1200 X163.623 Y212.272 E349.11222
M205 X8.18 Y8.18
G0 F1800 X163.622 Y211.705
M205 X3 Y3
G1 F1200 X134.294 Y182.377 E351.18147
M205 X8.18 Y8.18
G0 F1800 X134.86 Y182.377
M205 X3 Y3
