;FLAVOR:Marlin
;TIME:1465
;Filament used: 5.7437m
;Layer height: 0.2
;MINX:35.168
;MINY:72.847
;MINZ:0.2
;MAXX:173.186
;MAXY:164.935
;MAXZ:8.8
;Generated with Cura_SteamEngine 5.3.1
M82 ;absolute extrusion mode
M104 S220 ; set final nozzle temp
M190 S70 ; set and wait for nozzle temp to stabilize
M109 S220 ; wait for nozzle temp to stabilize
G28 ;Home
G1 E10 F3600; push out retracted filament(fix for over retraction after prime)
G92 E0
G92 E0
G1 F3600 E-1.5
;LAYER_COUNT:44
;LAYER:0
M107
G0 F7500 X38.284 Y96.106 Z0.2
;TYPE:SKIRT
G1 F3600 E0
G1 F7500 X38.767 Y95.957 E0.01933
G1 X39.407 Y95.881 E0.04398
G1 X40.398 Y95.865 E0.08189
G1 X88.467 Y95.866 E1.92049
G1 X89.344 Y95.879 E1.95404
G1 X90.655 Y96.046 E2.00459
G1 X91.179 Y96.121 E2.02484
G1 X93.886 Y96.431 E2.12906
G1 X96.591 Y96.662 E2.2329
G1 X99.34 Y96.82 E2.33822
G1 X102.093 Y96.9 E2.44356
G1 X104.812 Y96.902 E2.54756
G1 X107.563 Y96.826 E2.65282
G1 X110.278 Y96.674 E2.75683
G1 X113.021 Y96.442 E2.86212
G1 X115.731 Y96.137 E2.96643
G1 X118.111 Y95.791 E3.05842
G1 X118.918 Y95.683 E3.08957
G1 X120.048 Y95.665 E3.13279
G1 X168.117 Y95.666 E4.97139
G1 X168.819 Y95.676 E4.99825
G1 X169.322 Y95.723 E5.01757
G1 X169.938 Y95.888 E5.04196
G1 X170.407 Y96.078 E5.06132
G1 X170.84 Y96.339 E5.08065
G1 X171.377 Y96.809 E5.10795
G1 X171.768 Y97.295 E5.13181
G1 X172.018 Y97.734 E5.15113
G1 X172.26 Y98.405 E5.17841
G1 X172.374 Y99.229 E5.21023
G1 X172.385 Y99.753 E5.23028
G1 X172.386 Y159.602 E7.51945
G1 X172.374 Y160.474 E7.55281
G1 X172.327 Y160.977 E7.57213
G1 X172.201 Y161.467 E7.59148
G1 X172 Y161.931 E7.61083
G1 X171.728 Y162.357 E7.63016
G1 X171.305 Y162.848 E7.65495
G1 X170.94 Y163.198 E7.67429
G1 X170.525 Y163.486 E7.69361
G1 X170.069 Y163.706 E7.71298
G1 X169.585 Y163.85 E7.73229
G1 X168.965 Y163.921 E7.75616
G1 X168.078 Y163.934 E7.79009
G1 X119.853 Y163.935 E9.63466
G1 X118.96 Y163.921 E9.66882
G1 X117.724 Y163.763 E9.71648
G1 X117.159 Y163.682 E9.73831
G1 X114.467 Y163.373 E9.84195
G1 X111.751 Y163.139 E9.94622
G1 X109.005 Y162.981 E10.05143
G1 X106.254 Y162.901 E10.1567
G1 X103.535 Y162.898 E10.26069
G1 X100.783 Y162.973 E10.366
G1 X98.065 Y163.124 E10.47012
G1 X95.331 Y163.353 E10.57506
G1 X92.607 Y163.66 E10.67991
G1 X89.367 Y164.122 E10.80509
G1 X88.428 Y164.134 E10.84101
G1 X40.203 Y164.135 E12.68557
G1 X39.416 Y164.123 E12.71568
G1 X38.913 Y164.075 E12.735
G1 X38.423 Y163.949 E12.75436
G1 X37.96 Y163.747 E12.77368
G1 X37.333 Y163.328 E12.80252
G1 X36.861 Y162.873 E12.8276
G1 X36.557 Y162.469 E12.84694
G1 X36.226 Y161.812 E12.87508
G1 X36.049 Y161.211 E12.89904
G1 X35.98 Y160.596 E12.92271
G1 X35.969 Y159.775 E12.95412
G1 X35.968 Y100.107 E15.23637
G1 X35.978 Y99.414 E15.26288
G1 X36.026 Y98.91 E15.28224
G1 X36.206 Y98.245 E15.30859
G1 X36.469 Y97.679 E15.33246
G1 X36.752 Y97.26 E15.3518
G1 X37.291 Y96.709 E15.38128
G1 X37.83 Y96.328 E15.40653
G1 X38.284 Y96.106 E15.42586
G0 X38.108 Y95.747
G1 X38.682 Y95.564 E15.44891
G1 X39.401 Y95.481 E15.47659
G1 X40.398 Y95.465 E15.51473
G1 X88.473 Y95.466 E17.35356
G1 X89.395 Y95.482 E17.38883
G1 X90.712 Y95.65 E17.43961
G1 X91.236 Y95.725 E17.45986
G1 X93.92 Y96.032 E17.56319
G1 X96.625 Y96.264 E17.66703
G1 X99.352 Y96.42 E17.77151
G1 X102.105 Y96.5 E17.87685
G1 X104.801 Y96.502 E17.97997
G1 X107.552 Y96.426 E18.08523
G1 X110.244 Y96.275 E18.18836
G1 X112.987 Y96.044 E18.29365
G1 X115.673 Y95.741 E18.39704
G1 X118.058 Y95.395 E18.48922
G1 X118.912 Y95.283 E18.52216
G1 X120.048 Y95.265 E18.56562
G1 X168.123 Y95.266 E20.40445
G1 X168.825 Y95.276 E20.4313
G1 X169.392 Y95.328 E20.45308
G1 X170.088 Y95.517 E20.48067
G1 X170.613 Y95.735 E20.50241
G1 X171.076 Y96.014 E20.52309
G1 X171.689 Y96.558 E20.55443
G1 X172.08 Y97.044 E20.57829
G1 X172.366 Y97.536 E20.60006
G1 X172.65 Y98.308 E20.63152
G1 X172.774 Y99.221 E20.66676
G1 X172.785 Y99.753 E20.68712
G1 X172.786 Y159.608 E22.97652
G1 X172.774 Y160.48 E23.00988
G1 X172.714 Y161.077 E23.03283
G1 X172.568 Y161.626 E23.05456
G1 X172.337 Y162.146 E23.07632
G1 X172.031 Y162.618 E23.09783
G1 X171.582 Y163.137 E23.12408
G1 X171.217 Y163.487 E23.14343
G1 X170.753 Y163.815 E23.16516
G1 X170.243 Y164.066 E23.1869
G1 X169.666 Y164.243 E23.20999
G1 X168.971 Y164.321 E23.23674
G1 X168.078 Y164.334 E23.2709
G1 X119.847 Y164.335 E25.11569
G1 X118.909 Y164.318 E25.15158
G1 X117.667 Y164.159 E25.19947
G1 X117.102 Y164.078 E25.2213
G1 X114.433 Y163.772 E25.32406
G1 X111.717 Y163.537 E25.42833
G1 X108.993 Y163.381 E25.53269
G1 X106.242 Y163.301 E25.63796
G1 X103.546 Y163.298 E25.74108
G1 X100.794 Y163.373 E25.84638
G1 X98.098 Y163.522 E25.94966
G1 X95.364 Y163.751 E26.0546
G1 X92.663 Y164.056 E26.15856
G1 X89.372 Y164.522 E26.2857
G1 X88.433 Y164.534 E26.32162
G1 X40.197 Y164.535 E28.1666
G1 X39.41 Y164.523 E28.19671
G1 X38.813 Y164.462 E28.21966
G1 X38.263 Y164.316 E28.24143
G1 X37.768 Y164.1 E28.26208
G1 X37.08 Y163.64 E28.29374
G1 X36.541 Y163.114 E28.32255
G1 X36.218 Y162.685 E28.34309
G1 X35.851 Y161.957 E28.37427
G1 X35.655 Y161.289 E28.4009
G1 X35.582 Y160.641 E28.42584
G1 X35.569 Y159.775 E28.45897
G1 X35.568 Y100.101 E30.74145
G1 X35.578 Y99.408 E30.76796
G1 X35.631 Y98.836 E30.78993
G1 X35.843 Y98.076 E30.82011
G1 X36.106 Y97.51 E30.84398
G1 X36.442 Y97.005 E30.86718
G1 X37.031 Y96.403 E30.89939
G1 X37.599 Y96.001 E30.92601
G1 X38.108 Y95.747 E30.94777
G0 X37.929 Y95.389
G1 X38.595 Y95.172 E30.97456
G1 X39.395 Y95.081 E31.00536
G1 X40.398 Y95.065 E31.04373
G1 X88.48 Y95.066 E32.88282
G1 X89.446 Y95.085 E32.91978
G1 X90.769 Y95.254 E32.97079
G1 X91.293 Y95.329 E32.99104
G1 X93.954 Y95.633 E33.09348
G1 X96.659 Y95.866 E33.19733
G1 X99.364 Y96.02 E33.30096
G1 X102.117 Y96.1 E33.40631
G1 X104.79 Y96.102 E33.50855
G1 X107.541 Y96.026 E33.61381
G1 X110.21 Y95.876 E33.71606
G1 X112.953 Y95.646 E33.82134
G1 X115.616 Y95.345 E33.92385
G1 X118.006 Y94.998 E34.01622
G1 X118.86 Y94.886 E34.04917
G1 X120.048 Y94.865 E34.09461
G1 X168.129 Y94.866 E35.93367
G1 X168.831 Y94.876 E35.96053
G1 X169.465 Y94.933 E35.98487
G1 X170.193 Y95.131 E36.01373
G1 X170.819 Y95.392 E36.03967
G1 X171.315 Y95.691 E36.06182
G1 X172.001 Y96.307 E36.09709
G1 X172.392 Y96.793 E36.12095
G1 X172.727 Y97.361 E36.14617
G1 X173.04 Y98.212 E36.18085
G1 X173.174 Y99.213 E36.21948
G1 X173.185 Y99.753 E36.24014
G1 X173.186 Y159.614 E38.52977
G1 X173.174 Y160.486 E38.56313
G1 X173.101 Y161.18 E38.58982
G1 X172.934 Y161.788 E38.61394
G1 X172.673 Y162.364 E38.63812
G1 X172.334 Y162.88 E38.66174
G1 X171.885 Y163.399 E38.68799
G1 X171.448 Y163.814 E38.71104
G1 X170.984 Y164.142 E38.73277
G1 X170.42 Y164.425 E38.75691
G1 X169.744 Y164.637 E38.78401
G1 X169.016 Y164.719 E38.81203
G1 X168.078 Y164.734 E38.84791
G1 X119.84 Y164.735 E40.69297
G1 X118.858 Y164.715 E40.73054
G1 X117.61 Y164.555 E40.77867
G1 X117.045 Y164.474 E40.8005
G1 X114.399 Y164.171 E40.90237
G1 X111.683 Y163.935 E41.00665
G1 X108.981 Y163.781 E41.11016
G1 X106.23 Y163.701 E41.21543
G1 X103.557 Y163.698 E41.31767
G1 X100.805 Y163.773 E41.42297
G1 X98.131 Y163.92 E41.5254
G1 X95.397 Y164.149 E41.63034
G1 X92.719 Y164.452 E41.73343
G1 X89.377 Y164.922 E41.86251
G1 X88.438 Y164.934 E41.89843
G1 X40.191 Y164.935 E43.74384
G1 X39.369 Y164.921 E43.77529
G1 X38.71 Y164.849 E43.80064
G1 X38.16 Y164.703 E43.82241
G1 X37.577 Y164.454 E43.84666
G1 X36.829 Y163.954 E43.88107
G1 X36.221 Y163.355 E43.91371
G1 X35.879 Y162.901 E43.93546
G1 X35.476 Y162.102 E43.96968
G1 X35.271 Y161.402 E43.99758
G1 X35.182 Y160.647 E44.02666
G1 X35.169 Y159.775 E44.06002
G1 X35.168 Y100.095 E46.34273
G1 X35.178 Y99.402 E46.36924
G1 X35.236 Y98.763 E46.39378
G1 X35.48 Y97.907 E46.42782
G1 X35.743 Y97.341 E46.4517
G1 X36.129 Y96.753 E46.4786
G1 X36.771 Y96.097 E46.51371
G1 X37.368 Y95.674 E46.54169
G1 X37.929 Y95.389 E46.56576
G1 F3600 E45.06576
;MESH:BeeMic.stl
G0 F7500 X89.231 Y98.402
G0 X90.083 Y98.96
G0 X90.2 Y160.333
G0 X88.936 Y160.334
;TYPE:WALL-INNER
G1 F3600 E46.56576
G1 F7500 X88.936 Y99.665 E48.8863
G1 X39.769 Y99.666 E50.7669
G1 X39.769 Y160.335 E53.08743
G1 X88.936 Y160.334 E54.96803
G0 X89.094 Y160.734
;TYPE:WALL-OUTER
G1 X89.222 Y160.693 E54.97317
G1 X89.299 Y160.61 E54.9775
G1 X89.336 Y160.472 E54.98297
G1 X89.335 Y99.528 E57.31402
G1 X89.3 Y99.389 E57.31951
G1 X89.222 Y99.308 E57.32381
G1 X89.093 Y99.266 E57.329
G1 X39.578 Y99.266 E59.2229
G1 X39.416 Y99.366 E59.23018
G1 X39.369 Y99.484 E59.23504
G1 X39.369 Y160.517 E61.5695
G1 X39.414 Y160.633 E61.57426
G1 X39.576 Y160.735 E61.58158
G1 X89.094 Y160.734 E63.47561
G0 X89.222 Y160.693
G0 X89.266 Y160.645
G0 X88.556 Y159.954
;TYPE:SKIN
G1 X40.15 Y159.954 E65.27155
G1 X40.15 Y100.046 E67.49424
G1 X88.556 Y100.046 E69.29018
G1 X88.556 Y159.954 E71.51287
G1 F3600 E70.01287
G0 F7500 X90.2 Y159.953
G0 X90.2 Y100.799
G0 X88.355 Y100.8
G1 F3600 E71.51287
G1 F7500 X87.8 Y100.245 E71.54199
G0 X87.234 Y100.245
G1 X88.355 Y101.366 E71.60081
G0 X88.355 Y101.932
G1 X86.668 Y100.245 E71.68932
G0 X86.102 Y100.245
G1 X88.355 Y102.497 E71.80751
G0 X88.355 Y103.063
G1 X85.537 Y100.245 E71.95537
G0 X84.971 Y100.245
G1 X88.355 Y103.629 E72.13293
G0 X88.355 Y104.195
G1 X84.405 Y100.245 E72.34019
G0 X83.84 Y100.245
G1 X88.355 Y104.76 E72.57709
G0 X88.355 Y105.326
G1 X83.274 Y100.245 E72.84368
G0 X82.708 Y100.245
G1 X88.355 Y105.892 E73.13998
G0 X88.355 Y106.457
G1 X82.143 Y100.245 E73.46592
G0 X81.577 Y100.245
G1 X88.355 Y107.023 E73.82156
G0 X88.355 Y107.589
G1 X81.011 Y100.245 E74.2069
G0 X80.446 Y100.245
G1 X88.355 Y108.154 E74.62188
G0 X88.355 Y108.72
G1 X79.88 Y100.245 E75.06656
G0 X79.314 Y100.245
G1 X88.355 Y109.286 E75.54094
G0 X88.355 Y109.851
G1 X78.749 Y100.245 E76.04497
G0 X78.183 Y100.245
G1 X88.355 Y110.417 E76.57869
G0 X88.355 Y110.983
G1 X77.617 Y100.245 E77.14211
G0 X77.052 Y100.245
G1 X88.355 Y111.548 E77.73517
G0 X88.355 Y112.114
G1 X76.486 Y100.245 E78.35793
G0 X75.92 Y100.245
G1 X88.355 Y112.68 E79.0104
G0 X88.355 Y113.245
G1 X75.354 Y100.245 E79.69253
G0 X74.789 Y100.245
G1 X88.355 Y113.811 E80.40433
G0 X88.355 Y114.377
G1 X74.223 Y100.245 E81.14583
G0 X73.657 Y100.245
G1 X88.355 Y114.943 E81.91703
G0 X88.355 Y115.508
G1 X73.092 Y100.245 E82.71788
G0 X72.526 Y100.245
G1 X88.355 Y116.074 E83.54842
G0 X88.355 Y116.64
G1 X71.96 Y100.245 E84.40866
G0 X71.395 Y100.245
G1 X88.355 Y117.205 E85.29855
G0 X88.355 Y117.771
G1 X70.829 Y100.245 E86.21813
G0 X70.263 Y100.245
G1 X88.355 Y118.337 E87.16741
G0 X88.355 Y118.902
G1 X69.698 Y100.245 E88.14634
G0 X69.132 Y100.245
G1 X88.355 Y119.468 E89.15497
G0 X88.355 Y120.034
G1 X68.566 Y100.245 E90.19329
G0 X68.001 Y100.245
G1 X88.355 Y120.599 E91.26126
G0 X88.355 Y121.165
G1 X67.435 Y100.245 E92.35892
G0 X66.869 Y100.245
G1 X88.355 Y121.731 E93.48629
G0 X88.355 Y122.296
G1 X66.303 Y100.245 E94.64332
G0 X65.738 Y100.245
G1 X88.355 Y122.862 E95.83003
G0 X88.355 Y123.428
G1 X65.172 Y100.245 E97.04644
G0 X64.606 Y100.245
G1 X88.355 Y123.994 E98.29254
G0 X88.355 Y124.559
G1 X64.041 Y100.245 E99.56829
G0 X63.475 Y100.245
G1 X88.355 Y125.125 E100.87373
G0 X88.355 Y125.691
G1 X62.909 Y100.245 E102.20888
G0 X62.344 Y100.245
G1 X88.355 Y126.256 E103.57367
G0 X88.355 Y126.822
G1 X61.778 Y100.245 E104.96815
G0 X61.212 Y100.245
G1 X88.355 Y127.388 E106.39234
G0 X88.355 Y127.953
G1 X60.647 Y100.245 E107.84617
G0 X60.081 Y100.245
G1 X88.355 Y128.519 E109.3297
G0 X88.355 Y129.085
G1 X59.515 Y100.245 E110.84292
G0 X58.95 Y100.245
G1 X88.355 Y129.65 E112.38579
G0 X88.355 Y130.216
G1 X58.384 Y100.245 E113.95836
G0 X57.818 Y100.245
G1 X88.355 Y130.782 E115.56063
G0 X88.355 Y131.347
G1 X57.253 Y100.245 E117.19254
G0 X56.687 Y100.245
G1 X88.355 Y131.913 E118.85415
G0 X88.355 Y132.479
G1 X56.121 Y100.245 E120.54546
G0 X55.555 Y100.245
G1 X88.355 Y133.044 E122.26644
G0 X88.355 Y133.61
G1 X54.99 Y100.245 E124.01709
G0 X54.424 Y100.245
G1 X88.355 Y134.176 E125.79744
G0 X88.355 Y134.742
G1 X53.858 Y100.245 E127.60749
G0 X53.293 Y100.245
G1 X88.355 Y135.307 E129.44718
G0 X88.355 Y135.873
G1 X52.727 Y100.245 E131.31657
G0 X52.161 Y100.245
G1 X88.355 Y136.439 E133.21566
G0 X88.355 Y137.004
G1 X51.596 Y100.245 E135.1444
G0 X51.03 Y100.245
G1 X88.355 Y137.57 E137.10283
G0 X88.355 Y138.136
G1 X50.464 Y100.245 E139.09096
G0 X49.899 Y100.245
G1 X88.355 Y138.701 E141.10873
G0 X88.355 Y139.267
G1 X49.333 Y100.245 E143.1562
G0 X48.767 Y100.245
G1 X88.355 Y139.833 E145.23337
G0 X88.355 Y140.398
G1 X48.202 Y100.245 E147.34019
G0 X47.636 Y100.245
G1 X88.355 Y140.964 E149.4767
G0 X88.355 Y141.53
G1 X47.07 Y100.245 E151.64292
G0 X46.504 Y100.245
G1 X88.355 Y142.095 E153.8388
G0 X88.355 Y142.661
G1 X45.939 Y100.245 E156.06435
G0 X45.373 Y100.245
G1 X88.355 Y143.227 E158.31961
G0 X88.355 Y143.792
G1 X44.807 Y100.245 E160.60453
G0 X44.242 Y100.245
G1 X88.355 Y144.358 E162.91913
G0 X88.355 Y144.924
G1 X43.676 Y100.245 E165.26342
G0 X43.11 Y100.245
G1 X88.355 Y145.49 E167.63741
G0 X88.355 Y146.055
G1 X42.545 Y100.245 E170.04105
G0 X41.979 Y100.245
G1 X88.355 Y146.621 E172.47438
G0 X88.355 Y147.187
G1 X41.413 Y100.245 E174.93742
G0 X40.848 Y100.245
G1 X88.355 Y147.752 E177.43009
G0 X88.355 Y148.318
G1 X40.349 Y100.312 E179.94895
G0 X40.349 Y100.877
G1 X88.355 Y148.884 E182.46784
G0 X88.355 Y149.449
G1 X40.349 Y101.443 E184.9867
G0 X40.349 Y102.009
G1 X88.355 Y150.015 E187.50556
G0 X88.355 Y150.581
G1 X40.349 Y102.575 E190.02442
G0 X40.349 Y103.14
G1 X88.355 Y151.146 E192.54328
G0 X88.355 Y151.712
G1 X40.349 Y103.706 E195.06214
G0 X40.349 Y104.272
G1 X88.355 Y152.278 E197.581
G0 X88.355 Y152.843
G1 X40.349 Y104.837 E200.09986
G0 X40.349 Y105.403
G1 X88.355 Y153.409 E202.61872
G0 X88.355 Y153.975
G1 X40.349 Y105.969 E205.13759
G0 X40.349 Y106.534
G1 X88.355 Y154.541 E207.65647
G0 X88.355 Y155.106
G1 X40.349 Y107.1 E210.17533
G0 X40.349 Y107.666
G1 X88.355 Y155.672 E212.69419
G0 X88.355 Y156.238
G1 X40.349 Y108.231 E215.21308
G0 X40.349 Y108.797
G1 X88.355 Y156.803 E217.73194
G0 X88.355 Y157.369
G1 X40.349 Y109.363 E220.2508
G0 X40.349 Y109.928
G1 X88.355 Y157.935 E222.76969
G0 X88.355 Y158.5
G1 X40.349 Y110.494 E225.28855
G0 X40.349 Y111.06
G1 X88.355 Y159.066 E227.80741
G0 X88.355 Y159.632
G1 X40.349 Y111.625 E230.32629
G0 X40.349 Y112.191
G1 X87.911 Y159.753 E232.82186
G0 X87.345 Y159.753
G1 X40.349 Y112.757 E235.28772
G0 X40.349 Y113.323
G1 X86.779 Y159.753 E237.72389
G0 X86.213 Y159.753
G1 X40.349 Y113.888 E240.13039
G0 X40.349 Y114.454
G1 X85.648 Y159.753 E242.50721
G0 X85.082 Y159.753
G1 X40.349 Y115.02 E244.85434
G0 X40.349 Y115.585
G1 X84.516 Y159.753 E247.1718
G0 X83.951 Y159.753
G1 X40.349 Y116.151 E249.45958
G0 X40.349 Y116.717
G1 X83.385 Y159.753 E251.71767
G0 X82.819 Y159.753
G1 X40.349 Y117.282 E253.94608
G0 X40.349 Y117.848
G1 X82.254 Y159.753 E256.14482
G0 X81.688 Y159.753
G1 X40.349 Y118.414 E258.31387
G0 X40.349 Y118.979
G1 X81.122 Y159.753 E260.45324
G0 X80.557 Y159.753
G1 X40.349 Y119.545 E262.56294
G0 X40.349 Y120.111
G1 X79.991 Y159.753 E264.64295
G0 X79.425 Y159.753
G1 X40.349 Y120.676 E266.69328
G0 X40.349 Y121.242
G1 X78.86 Y159.753 E268.71394
G0 X78.294 Y159.753
G1 X40.349 Y121.808 E270.7049
G0 X40.349 Y122.374
G1 X77.728 Y159.753 E272.66617
G0 X77.163 Y159.753
G1 X40.349 Y122.939 E274.59779
G0 X40.349 Y123.505
G1 X76.597 Y159.753 E276.49971
G0 X76.031 Y159.753
G1 X40.349 Y124.071 E278.37193
G0 X40.349 Y124.636
G1 X75.465 Y159.753 E280.21448
G0 X74.9 Y159.753
G1 X40.349 Y125.202 E282.02737
G0 X40.349 Y125.768
G1 X74.334 Y159.753 E283.81055
G0 X73.768 Y159.753
G1 X40.349 Y126.333 E285.56406
G0 X40.349 Y126.899
G1 X73.203 Y159.753 E287.2879
G0 X72.637 Y159.753
G1 X40.349 Y127.465 E288.98204
G0 X40.349 Y128.03
G1 X72.071 Y159.753 E290.64651
G0 X71.506 Y159.753
G1 X40.349 Y128.596 E292.28131
G0 X40.349 Y129.162
G1 X70.94 Y159.753 E293.88641
G0 X70.374 Y159.753
G1 X40.349 Y129.727 E295.46184
G0 X40.349 Y130.293
G1 X69.809 Y159.753 E297.0076
G0 X69.243 Y159.753
G1 X40.349 Y130.859 E298.52366
G0 X40.349 Y131.424
G1 X68.677 Y159.753 E300.01004
G0 X68.112 Y159.753
G1 X40.349 Y131.99 E301.46676
G0 X40.349 Y132.556
G1 X67.546 Y159.753 E302.89378
G0 X66.98 Y159.753
G1 X40.349 Y133.122 E304.2911
G0 X40.349 Y133.687
G1 X66.415 Y159.753 E305.65877
G0 X65.849 Y159.753
G1 X40.349 Y134.253 E306.99675
G0 X40.349 Y134.819
